Breeze Round Light/actions/24/labplot-editbreaklayout.svg

<svg xmlns="http://www.w3.org/2000/svg" viewBox="0 0 24 24" width="24" height="24">
  <defs id="defs3051">
    <style type="text/css" id="current-color-scheme">.ColorScheme-Text {color:#fcfcfc;}</style>
  </defs>
  <g transform="translate(1,1)">
    <path style="fill:currentColor;fill-opacity:1;stroke:none" d="m 2,6 c 0,3 0,7 0,10 0,3 3,3 3,3 h 6 v -1 -7 h 7 1 C 19,11 19,9 19,6 19,3 16,3 16,3 H 5 C 5,3 2,3 2,6 Z m 16,5 -0.996094,0.994141 H 17 l -5,4.99414 0.0078,0.002 -0.0039,1.001954 H 12 v 0.990234 h 2 0.0059 0.0039 0.0098 l -0.0059,-0.002 L 15,17.994141 l 4,-3.992188 -0.705078,-0.708984 -4.990234,4.982422 -0.59375,-0.591797 4.992187,-4.984375 0.591797,0.59375 L 19,13.996094 l 1,-1 z M 3,6 C 3,4 5,4 5,4 h 5 v 6 H 3 C 3,10 3,8 3,6 Z m 8,-2 h 5 c 0,0 2,0 2,2 0,2 0,4 0,4 H 11 Z M 6.0800781,5.0019531 C 5.5402063,4.9805793 5.0146542,5.1785419 4.6230469,5.5507812 3.9624223,6.1786461 3.8098264,7.1737319 4.2519531,7.9707031 c 0.4425682,0.7966921 1.3677697,1.1934365 2.25,0.9648438 C 7.3838742,8.7068867 7.9997998,7.9110819 8,7 H 6 L 7.0585938,5.3027344 C 6.7640388,5.1192826 6.4268204,5.0156266 6.0800781,5.0019531 Z M 3,11 h 7 v 7 H 5 c 0,0 -2,0 -2,-2 0,-2 0,-5 0,-5 z" class="ColorScheme-Text"/>
  </g>
</svg>

<svg xmlns="http://www.w3.org/2000/svg" viewBox="0 0 24 24">
  <defs id="defs3051">
    <style type="text/css" id="current-color-scheme">
      .ColorScheme-Text {
        color:#232629;
      }
      </style>
  </defs><g transform="translate(1,1)">
 <path 
    style="fill:currentColor;fill-opacity:1;stroke:none" 
	d="M 2 3 L 2 19 L 11 19 L 11 18 L 11 11 L 18 11 L 19 11 L 19 3 L 2 3 z M 18 11 L 17.003906 11.994141 L 17 11.994141 L 12 16.988281 L 12.007812 16.990234 L 12.003906 17.992188 L 12 17.992188 L 12 18.982422 L 14 18.982422 L 14.005859 18.982422 L 14.009766 18.982422 L 14.019531 18.982422 L 14.013672 18.980469 L 15 17.994141 L 19 14.001953 L 18.294922 13.292969 L 13.304688 18.275391 L 12.710938 17.683594 L 17.703125 12.699219 L 18.294922 13.292969 L 19 13.996094 L 20 12.996094 L 18 11 z M 3 4 L 10 4 L 10 10 L 3 10 L 3 4 z M 11 4 L 18 4 L 18 10 L 11 10 L 11 4 z M 6.0800781 5.0019531 C 5.5402063 4.9805793 5.0146542 5.1785419 4.6230469 5.5507812 C 3.9624223 6.1786461 3.8098264 7.1737319 4.2519531 7.9707031 C 4.6945213 8.7673952 5.6197228 9.1641396 6.5019531 8.9355469 C 7.3838742 8.7068867 7.9997998 7.9110819 8 7 L 6 7 L 7.0585938 5.3027344 C 6.7640388 5.1192826 6.4268204 5.0156266 6.0800781 5.0019531 z M 3 11 L 10 11 L 10 18 L 3 18 L 3 11 z "
    class="ColorScheme-Text"
    />
</g></svg>
